icons/pin-16.svg

<svg width="16" height="16" viewBox="0 0 16 16" xmlns="http://www.w3.org/2000/svg">
  <path fill-rule="evenodd" clip-rule="evenodd" d="M4.45559 0.733756C5.31654 -0.127194 6.77172 0.132338 7.28196 1.23784L7.89462 2.56528C8.04695 2.89533 8.25648 3.19582 8.51352 3.45286C8.91674 3.85608 9.42394 4.1395 9.97867 4.27158L12.4328 4.8559C13.7647 5.173 14.233 6.82768 13.2649 7.79575L11.0607 10L14.7803 13.7197C15.0732 14.0126 15.0732 14.4874 14.7803 14.7803C14.4874 15.0732 14.0126 15.0732 13.7197 14.7803L10 11.0607L7.79576 13.2649C6.82768 14.233 5.17302 13.7647 4.85591 12.4328L4.27158 9.97866C4.1395 9.42394 3.85608 8.91674 3.45286 8.51352C3.19582 8.25648 2.89533 8.04695 2.56527 7.89462L1.23784 7.28196C0.132338 6.77172 -0.127194 5.31654 0.733756 4.45559L4.45559 0.733756ZM5.92002 1.86643C5.84713 1.7085 5.63924 1.67142 5.51625 1.79442L1.79442 5.51625C1.67142 5.63924 1.7085 5.84713 1.86643 5.92002L3.19386 6.53268C3.68458 6.75917 4.13136 7.0707 4.51353 7.45286C5.11303 8.05237 5.53441 8.80646 5.73079 9.63123L6.31512 12.0854C6.36042 12.2757 6.5968 12.3426 6.7351 12.2043L12.2043 6.73509C12.3426 6.59679 12.2757 6.36041 12.0854 6.31511L9.63124 5.73079C8.80647 5.53441 8.05236 5.11302 7.45286 4.51352C7.07069 4.13135 6.75917 3.68458 6.53268 3.19387L5.92002 1.86643Z"/>
</svg>

<svg xmlns="http://www.w3.org/2000/svg" width="16" height="16" viewBox="0 0 16 16"><path fill-rule="evenodd" d="M4.456.734a1.75 1.75 0 012.826.504l.613 1.327a3.081 3.081 0 002.084 1.707l2.454.584c1.332.317 1.8 1.972.832 2.94L11.06 10l3.72 3.72a.75.75 0 11-1.061 1.06L10 11.06l-2.204 2.205c-.968.968-2.623.5-2.94-.832l-.584-2.454a3.081 3.081 0 00-1.707-2.084l-1.327-.613a1.75 1.75 0 01-.504-2.826L4.456.734zM5.92 1.866a.25.25 0 00-.404-.072L1.794 5.516a.25.25 0 00.072.404l1.328.613A4.582 4.582 0 015.73 9.63l.584 2.454a.25.25 0 00.42.12l5.47-5.47a.25.25 0 00-.12-.42L9.63 5.73a4.581 4.581 0 01-3.098-2.537L5.92 1.866z"/></svg>
